assets/images/icons/google-plus-icon.svg

<svg xmlns="http://www.w3.org/2000/svg" width="128pt" height="128pt" viewBox="0 0 128 128"><path fill="#fff" d="M0 0h128v128H0V0z"/><path d="M4.22 8.9c1.56-1.54 3.12-3.1 4.67-4.67 35.71-.35 71.43-.02 107.15-.17 4.26-.58 8.32 3.61 7.89 7.83-.03 35.05-.02 70.1 0 105.15.43 4.22-3.59 8.47-7.88 7.9-35.71-.13-71.42.18-107.13-.16-2.05-2.26-5.49-4.17-4.85-7.74C4.22 81 3.8 44.94 4.22 8.9z"/><path fill="#fff" d="M5.02 27.97c7.09-5.59 15.74-9.48 24.88-9.58 13.75-.11 27.5-.05 41.25-.09-2.66 2.64-5.86 4.76-9.12 6.58-3.73.37-7.47-.01-11.21.06 1.08 2.34 3.96 2.8 5.43 4.8 5.38 6.41 7.39 15.3 5.93 23.48-1.69 7.46-6.87 13.53-12.86 18.01-3.82 2.81-7.56 7.3-5.64 12.36 4.43 8.63 14.53 11.97 19.83 19.87 4.18 5.89 5.13 13.46 4.52 20.5-3.37.11-6.75.12-10.13.05-.1-4.03-.72-8.33-3.59-11.41-3.82-4.23-8.77-7.27-13.53-10.33-12.24-4.09-26.51-.61-35.7 8.45-.11-3.05-.12-6.1-.03-9.15 6.94-2.97 14.43-4.76 22-4.68 2.04.04 4.09.05 6.1-.29-2.13-2.87-4.83-5.76-5.05-9.52-.39-3.16.48-6.29 1.8-9.14-8.84.76-17.68-1.76-24.81-7.01-.22-14.32-.16-28.64-.07-42.96z"/><path fill="#fff" d="M90.71 19.46c3.18-.26 6.38-.31 9.56.01-.58 5.82-.18 11.68-.27 17.52 5.86-.41 11.74-.1 17.61-.29.15 3.05.08 6.11.11 9.16-5.88.3-11.78.02-17.66.19-.25 5.95 0 11.9-.18 17.85-3.03.11-6.05.1-9.08 0 .04-5.95-.16-11.9.16-17.85-6.05-.03-12.11-.25-18.15.2.03-3.06.01-6.12-.05-9.18 5.99-.61 12.03-.19 18.04-.26-.07-5.78 0-11.57-.09-17.35z"/><path d="M22.32 24.4c5.26-1.12 10.59 1.21 14.67 4.43 7.26 6.1 11.32 15.73 10.91 25.18.23 6.69-2.28 14.02-8.09 17.8-5.03 3.38-11.93 2.42-16.74-.91-10.59-7.28-15.52-21.45-12.68-33.84 1.38-5.9 5.79-11.4 11.93-12.66z"/></svg>

<?xml version="1.0" encoding="UTF-8" standalone="no"?>
<svg
   xmlns:dc="http://purl.org/dc/elements/1.1/"
   xmlns:cc="http://creativecommons.org/ns#"
   xmlns:rdf="http://www.w3.org/1999/02/22-rdf-syntax-ns#"
   xmlns:svg="http://www.w3.org/2000/svg"
   xmlns="http://www.w3.org/2000/svg"
   xmlns:sodipodi="http://sodipodi.sourceforge.net/DTD/sodipodi-0.dtd"
   xmlns:inkscape="http://www.inkscape.org/namespaces/inkscape"
   width="128pt"
   height="128pt"
   viewBox="0 0 128 128"
   version="1.1"
   id="svg3049"
   inkscape:version="0.48.5 r10040"
   sodipodi:docname="google-plus-icon.svg">
  <metadata
     id="metadata3065">
    <rdf:RDF>
      <cc:Work
         rdf:about="">
        <dc:format>image/svg+xml</dc:format>
        <dc:type
           rdf:resource="http://purl.org/dc/dcmitype/StillImage" />
      </cc:Work>
    </rdf:RDF>
  </metadata>
  <defs
     id="defs3063" />
  <sodipodi:namedview
     pagecolor="#ffffff"
     bordercolor="#666666"
     borderopacity="1"
     objecttolerance="10"
     gridtolerance="10"
     guidetolerance="10"
     inkscape:pageopacity="0"
     inkscape:pageshadow="2"
     inkscape:window-width="832"
     inkscape:window-height="1040"
     id="namedview3061"
     showgrid="false"
     inkscape:zoom="5.23125"
     inkscape:cx="46.069295"
     inkscape:cy="80"
     inkscape:window-x="0"
     inkscape:window-y="2"
     inkscape:window-maximized="0"
     inkscape:current-layer="svg3049" />
  <path
     fill="#ffffff"
     d=" M 0.00 0.00 L 128.00 0.00 L 128.00 128.00 L 0.00 128.00 L 0.00 0.00 Z"
     id="path3051" />
  <path
     fill="#737373"
     d=" M 4.22 8.90 C 5.78 7.36 7.34 5.80 8.89 4.23 C 44.60 3.88 80.32 4.21 116.04 4.06 C 120.30 3.48 124.36 7.67 123.93 11.89 C 123.90 46.94 123.91 81.99 123.93 117.04 C 124.36 121.26 120.34 125.51 116.05 124.94 C 80.34 124.81 44.63 125.12 8.92 124.78 C 6.87 122.52 3.43 120.61 4.07 117.04 C 4.22 81.00 3.80 44.94 4.22 8.90 Z"
     id="path3053"
     style="fill:#000000;fill-opacity:1" />
  <path
     fill="#ffffff"
     d=" M 5.02 27.97 C 12.11 22.38 20.76 18.49 29.90 18.39 C 43.65 18.28 57.40 18.34 71.15 18.30 C 68.49 20.94 65.29 23.06 62.03 24.88 C 58.30 25.25 54.56 24.87 50.82 24.94 C 51.90 27.28 54.78 27.74 56.25 29.74 C 61.63 36.15 63.64 45.04 62.18 53.22 C 60.49 60.68 55.31 66.75 49.32 71.23 C 45.50 74.04 41.76 78.53 43.68 83.59 C 48.11 92.22 58.21 95.56 63.51 103.46 C 67.69 109.35 68.64 116.92 68.03 123.96 C 64.66 124.07 61.28 124.08 57.90 124.01 C 57.80 119.98 57.18 115.68 54.31 112.60 C 50.49 108.37 45.54 105.33 40.78 102.27 C 28.54 98.18 14.27 101.66 5.08 110.72 C 4.97 107.67 4.96 104.62 5.05 101.57 C 11.99 98.60 19.48 96.81 27.05 96.89 C 29.09 96.93 31.14 96.94 33.15 96.60 C 31.02 93.73 28.32 90.84 28.10 87.08 C 27.71 83.92 28.58 80.79 29.90 77.94 C 21.06 78.70 12.22 76.18 5.09 70.93 C 4.87 56.61 4.93 42.29 5.02 27.97 Z"
     id="path3055" />
  <path
     fill="#ffffff"
     d=" M 90.71 19.46 C 93.89 19.20 97.09 19.15 100.27 19.47 C 99.69 25.29 100.09 31.15 100.00 36.99 C 105.86 36.58 111.74 36.89 117.61 36.70 C 117.76 39.75 117.69 42.81 117.72 45.86 C 111.84 46.16 105.94 45.88 100.06 46.05 C 99.81 52.00 100.06 57.95 99.88 63.90 C 96.85 64.01 93.83 64.00 90.80 63.90 C 90.84 57.95 90.64 52.00 90.96 46.05 C 84.91 46.02 78.85 45.80 72.81 46.25 C 72.84 43.19 72.82 40.13 72.76 37.07 C 78.75 36.46 84.79 36.88 90.80 36.81 C 90.73 31.03 90.80 25.24 90.71 19.46 Z"
     id="path3057" />
  <path
     fill="#737373"
     d=" M 22.32 24.40 C 27.58 23.28 32.91 25.61 36.99 28.83 C 44.25 34.93 48.31 44.56 47.90 54.01 C 48.13 60.70 45.62 68.03 39.81 71.81 C 34.78 75.19 27.88 74.23 23.07 70.90 C 12.48 63.62 7.55 49.45 10.39 37.06 C 11.77 31.16 16.18 25.66 22.32 24.40 Z"
     id="path3059"
     style="fill:#000000;fill-opacity:1" />
</svg>
